;FLAVOR:Marlin
;TIME:16875
;Filament used: 10.5992m
;Layer height: 0.2
;MINX:53.568
;MINY:64.568
;MINZ:0.2
;MAXX:166.432
;MAXY:156
;MAXZ:28
;Generated with Cura_SteamEngine 4.7.1
M140 S60
M105
M190 S60
M104 S220
M105
M109 S220
M82 ;absolute extrusion mode
; Ender 3 Custom Start G-code
G92 E0 ; Reset Extruder
G28 ; Home all axes
G1 Z2.0 F3000 ; Move Z Axis up little to prevent scratching of Heat Bed
G1 X0.1 Y20 Z0.3 F5000.0 ; Move to start position
G1 X0.1 Y200.0 Z0.3 F1500.0 E15 ; Draw the first line
G1 X0.4 Y200.0 Z0.3 F5000.0 ; Move to side a little
G1 X0.4 Y20 Z0.3 F1500.0 E30 ; Draw the second line
G92 E0 ; Reset Extruder
G1 Z2.0 F3000 ; Move Z Axis up little to prevent scratching of Heat Bed
G1 X5 Y20 Z0.3 F5000.0 ; Move over to prevent blob squish
G92 E0
G92 E0
G1 F1500 E-6.5
;LAYER_COUNT:140
;LAYER:0
M107
G0 F6000 X57.442 Y67.446 Z0.2
;TYPE:SKIRT
G1 F1500 E0
G1 F1200 X58.346 Y66.738 E0.03819
G1 X58.557 Y66.59 E0.04676
G1 X59.347 Y66.085 E0.07795
G1 X60.178 Y65.649 E0.10916
G1 X61.042 Y65.285 E0.14034
G1 X61.934 Y64.996 E0.17153
G1 X62.621 Y64.829 E0.19505
G1 X62.664 Y64.82 E0.19651
G1 X63.589 Y64.667 E0.22769
G1 X64.713 Y64.589 E0.26516
G1 X65.735 Y64.57 E0.29916
G1 X65.939 Y64.568 E0.30595
G1 X141.5 Y64.568 E2.81912
G1 X154.464 Y64.568 E3.2503
G1 X155.186 Y64.579 E3.27432
G1 X156.122 Y64.634 E3.3055
G1 X157.05 Y64.767 E3.33668
G1 X157.964 Y64.98 E3.3679
G1 X158.856 Y65.269 E3.39908
G1 X160.014 Y65.778 E3.44116
G1 X160.322 Y65.935 E3.45265
G1 X161.138 Y66.396 E3.48383
G1 X161.913 Y66.925 E3.51504
G1 X162.639 Y67.518 E3.54621
G1 X163.313 Y68.171 E3.57743
G1 X163.928 Y68.879 E3.60862
G1 X164.481 Y69.636 E3.6398
G1 X164.967 Y70.438 E3.67099
G1 X165.219 Y70.927 E3.68929
G1 X165.306 Y71.106 E3.6959
G1 X165.68 Y71.966 E3.7271
G1 X165.979 Y72.855 E3.75829
G1 X166.201 Y73.766 E3.78948
G1 X166.345 Y74.693 E3.82068
G1 X166.411 Y75.706 E3.85444
G1 X166.43 Y76.711 E3.88788
G1 X166.432 Y76.919 E3.8948
G1 X166.432 Y129.561 E5.64568
G1 X166.432 Y138.447 E5.94123
G1 X166.421 Y139.183 E5.96571
G1 X166.367 Y140.12 E5.99692
G1 X166.233 Y141.048 E6.02811
G1 X166.021 Y141.962 E6.05932
G1 X165.758 Y142.782 E6.08796
G1 X165.671 Y143.021 E6.09642
G1 X165.313 Y143.887 E6.12758
G1 X164.883 Y144.721 E6.15879
G1 X164.383 Y145.514 E6.18997
G1 X163.817 Y146.262 E6.22117
G1 X163.189 Y146.959 E6.25238
G1 X162.505 Y147.6 E6.28355
G1 X161.634 Y148.276 E6.32023
G1 X161.425 Y148.422 E6.32871
G1 X160.634 Y148.925 E6.35988
G1 X159.803 Y149.36 E6.39108
G1 X158.938 Y149.722 E6.42227
G1 X158.045 Y150.01 E6.45348
G1 X157.379 Y150.171 E6.47626
G1 X157.336 Y150.18 E6.47773
G1 X156.411 Y150.333 E6.50891
G1 X155.287 Y150.411 E6.54638
G1 X154.265 Y150.43 E6.58038
G1 X154.061 Y150.432 E6.58717
G1 X147.862 Y150.432 E6.79335
G1 X145.254 Y150.469 E6.8801
G1 X142.732 Y150.576 E6.96406
G1 X140.237 Y150.753 E7.04725
G1 X137.739 Y151.001 E7.13074
G1 X135.25 Y151.319 E7.2142
G1 X132.741 Y151.713 E7.29867
G1 X130.278 Y152.171 E7.38199
G1 X127.753 Y152.715 E7.4679
G1 X125.377 Y153.298 E7.54927
G1 X122.93 Y153.972 E7.63369
G1 X120.563 Y154.696 E7.71602
G1 X119.784 Y154.962 E7.7434
G1 X119.613 Y155.012 E7.74932
G1 X118.34 Y155.433 E7.79392
G1 X117.438 Y155.689 E7.8251
G1 X116.517 Y155.868 E7.85631
G1 X115.307 Y155.981 E7.89673
G1 X115.15 Y155.987 E7.90195
G1 X114.864 Y155.994 E7.91147
G1 X114.321 Y156 E7.92953
G1 X105.653 Y155.999 E8.21783
G1 X104.947 Y155.988 E8.24131
G1 X104.01 Y155.933 E8.27253
G1 X103.082 Y155.799 E8.30372
G1 X102.169 Y155.586 E8.3349
G1 X101.601 Y155.412 E8.35466
G1 X100.788 Y155.138 E8.38319
G1 X98.276 Y154.33 E8.47096
G1 X95.898 Y153.637 E8.55334
G1 X93.44 Y152.997 E8.63782
G1 X91.048 Y152.444 E8.71948
G1 X88.513 Y151.935 E8.80547
G1 X86.052 Y151.512 E8.88853
G1 X83.541 Y151.155 E8.97288
G1 X81.069 Y150.873 E9.05564
G1 X78.54 Y150.657 E9.14006
G1 X76.021 Y150.513 E9.22398
G1 X73.515 Y150.441 E9.30736
G1 X72.145 Y150.432 E9.35293
G1 X65.535 Y150.432 E9.57278
G1 X64.808 Y150.421 E9.59696
G1 X63.871 Y150.367 E9.62818
G1 X62.943 Y150.233 E9.65936
G1 X62.029 Y150.021 E9.69057
G1 X61.186 Y149.749 E9.72003
G1 X60.957 Y149.665 E9.72814
G1 X60.091 Y149.305 E9.75934
G1 X59.259 Y148.872 E9.79053
G1 X58.467 Y148.37 E9.82172
G1 X57.72 Y147.803 E9.85291
G1 X56.88 Y147.028 E9.89093
G1 X56.836 Y146.983 E9.89302
G1 X56.209 Y146.285 E9.92423
G1 X55.645 Y145.537 E9.95538
G1 X55.367 Y145.113 E9.97225
G1 X55.261 Y144.943 E9.97891
G1 X54.799 Y144.127 E10.0101
G1 X54.408 Y143.274 E10.04131
G1 X54.092 Y142.391 E10.0725
G1 X53.843 Y141.448 E10.10494
G1 X53.835 Y141.411 E10.1062
G1 X53.677 Y140.486 E10.13741
G1 X53.589 Y139.289 E10.17733
G1 X53.57 Y138.26 E10.21156
G1 X53.568 Y138.057 E10.21831
G1 X53.568 Y85.439 E11.96839
G1 X53.568 Y76.507 E12.26547
G1 X53.579 Y75.809 E12.28869
G1 X53.634 Y74.872 E12.31991
G1 X53.768 Y73.944 E12.3511
G1 X53.981 Y73.031 E12.38228
G1 X54.219 Y72.282 E12.40842
G1 X54.304 Y72.044 E12.41682
G1 X54.657 Y71.175 E12.44802
G1 X55.082 Y70.34 E12.47918
G1 X55.577 Y69.543 E12.51039
G1 X56.139 Y68.792 E12.54159
G1 X56.762 Y68.091 E12.57278
G1 X57.442 Y67.446 E12.60395
G0 F6000 X57.782 Y67.681
G1 F1200 X58.576 Y67.066 E12.63735
G1 X58.787 Y66.918 E12.64593
G1 X59.563 Y66.422 E12.67656
G1 X60.379 Y65.996 E12.70717
G1 X61.229 Y65.642 E12.7378
G1 X62.106 Y65.364 E12.7684
G1 X62.702 Y65.221 E12.78878
G1 X62.745 Y65.212 E12.79025
G1 X63.654 Y65.063 E12.82088
G1 X64.72 Y64.989 E12.85642
G1 X65.742 Y64.97 E12.89042
G1 X65.939 Y64.968 E12.89697
G1 X141.5 Y64.968 E15.41014
G1 X154.457 Y64.968 E15.84109
G1 X155.179 Y64.979 E15.86511
G1 X156.099 Y65.033 E15.89576
G1 X157.009 Y65.167 E15.92636
G1 X157.905 Y65.379 E15.95698
G1 X158.779 Y65.668 E15.9876
G1 X159.832 Y66.134 E16.0259
G1 X160.14 Y66.291 E16.0374
G1 X160.941 Y66.744 E16.068
G1 X161.7 Y67.266 E16.09864
G1 X162.411 Y67.851 E16.12926
G1 X163.068 Y68.495 E16.15986
G1 X163.667 Y69.194 E16.19048
G1 X164.204 Y69.943 E16.22113
G1 X164.86 Y71.101 E16.2654
G1 X164.947 Y71.28 E16.27202
G1 X165.313 Y72.125 E16.30265
G1 X165.604 Y72.998 E16.33325
G1 X165.819 Y73.894 E16.3639
G1 X165.955 Y74.804 E16.3945
G1 X166.011 Y75.714 E16.42483
G1 X166.03 Y76.719 E16.45826
G1 X166.032 Y76.919 E16.46491
G1 X166.032 Y129.561 E18.21579
G1 X166.032 Y138.441 E18.51114
G1 X166.021 Y139.177 E18.53562
G1 X165.967 Y140.096 E18.56624
G1 X165.834 Y141.007 E18.59686
G1 X165.622 Y141.903 E18.62749
G1 X165.383 Y142.645 E18.65342
G1 X165.296 Y142.884 E18.66188
G1 X164.943 Y143.734 E18.69249
G1 X164.519 Y144.551 E18.7231
G1 X164.025 Y145.328 E18.75373
G1 X163.465 Y146.059 E18.78435
G1 X162.844 Y146.739 E18.81498
G1 X162.167 Y147.363 E18.84561
G1 X161.405 Y147.948 E18.87756
G1 X161.196 Y148.094 E18.88604
G1 X160.419 Y148.588 E18.91666
G1 X159.603 Y149.012 E18.94725
G1 X158.752 Y149.365 E18.97789
G1 X157.874 Y149.642 E19.00851
G1 X157.298 Y149.779 E19.0282
G1 X157.255 Y149.788 E19.02966
G1 X156.346 Y149.937 E19.0603
G1 X155.28 Y150.011 E19.09584
G1 X154.258 Y150.03 E19.12984
G1 X154.061 Y150.032 E19.13639
G1 X147.856 Y150.032 E19.34277
G1 X145.231 Y150.069 E19.43009
G1 X142.723 Y150.176 E19.51358
G1 X140.206 Y150.354 E19.5975
G1 X137.682 Y150.604 E19.68186
G1 X135.174 Y150.925 E19.76596
G1 X132.712 Y151.312 E19.84885
G1 X130.19 Y151.781 E19.93417
G1 X127.678 Y152.321 E20.01963
G1 X125.247 Y152.919 E20.1029
G1 X122.845 Y153.58 E20.18576
G1 X120.415 Y154.324 E20.27028
G1 X119.655 Y154.583 E20.29699
G1 X119.483 Y154.633 E20.30295
G1 X118.214 Y155.053 E20.3474
G1 X117.328 Y155.304 E20.37803
G1 X116.424 Y155.477 E20.40865
G1 X115.292 Y155.581 E20.44645
G1 X115.135 Y155.587 E20.45168
G1 X114.86 Y155.594 E20.46083
G1 X114.321 Y155.6 E20.47876
G1 X105.659 Y155.599 E20.76686
G1 X104.953 Y155.588 E20.79034
G1 X104.034 Y155.533 E20.82096
G1 X103.123 Y155.4 E20.85158
G1 X102.227 Y155.187 E20.88222
G1 X101.729 Y155.033 E20.89955
G1 X100.892 Y154.75 E20.92894
G1 X98.406 Y153.951 E21.01579
G1 X96.006 Y153.252 E21.09893
G1 X93.526 Y152.606 E21.18417
G1 X91.145 Y152.056 E21.26545
G1 X88.588 Y151.543 E21.35219
G1 X86.11 Y151.117 E21.43581
G1 X83.606 Y150.76 E21.51994
G1 X81.076 Y150.472 E21.60463
G1 X78.596 Y150.26 E21.68742
G1 X76.056 Y150.115 E21.77204
G1 X73.483 Y150.041 E21.85765
G1 X72.147 Y150.032 E21.90209
G1 X65.541 Y150.032 E22.1218
G1 X64.814 Y150.021 E22.14599
G1 X63.895 Y149.967 E22.1766
G1 X62.984 Y149.833 E22.20723
G1 X62.088 Y149.621 E22.23785
G1 X61.324 Y149.374 E22.26456
G1 X61.095 Y149.29 E22.27267
G1 X60.245 Y148.935 E22.30331
G1 X59.429 Y148.509 E22.33393
G1 X58.653 Y148.013 E22.36456
G1 X57.924 Y147.451 E22.39517
G1 X57.166 Y146.749 E22.42954
G1 X57.122 Y146.704 E22.43163
G1 X56.507 Y146.018 E22.46227
G1 X55.706 Y144.901 E22.50799
G1 X55.6 Y144.731 E22.51465
G1 X55.148 Y143.93 E22.54524
G1 X54.766 Y143.092 E22.57587
G1 X54.459 Y142.224 E22.6065
G1 X54.234 Y141.363 E22.6361
G1 X54.226 Y141.326 E22.63735
G1 X54.071 Y140.419 E22.66796
G1 X53.989 Y139.282 E22.70587
G1 X53.97 Y138.253 E22.7401
G1 X53.968 Y138.057 E22.74662
G1 X53.968 Y85.439 E24.49671
G1 X53.968 Y76.513 E24.79359
G1 X53.979 Y75.815 E24.8168
G1 X54.034 Y74.896 E24.84742
G1 X54.168 Y73.985 E24.87805
G1 X54.38 Y73.089 E24.90867
G1 X54.596 Y72.417 E24.93215
G1 X54.681 Y72.179 E24.94056
G1 X55.028 Y71.326 E24.97119
G1 X55.447 Y70.507 E25.00178
G1 X55.936 Y69.727 E25.0324
G1 X56.491 Y68.992 E25.06304
G1 X57.108 Y68.309 E25.09365
G1 X57.782 Y67.681 E25.12429
G0 F6000 X58.12 Y67.919
G1 F1200 X58.806 Y67.393 E25.15304
G1 X59.017 Y67.245 E25.16161
G1 X59.778 Y66.76 E25.19163
G1 X60.58 Y66.344 E25.22168
G1 X61.415 Y66 E25.25171
G1 X62.277 Y65.732 E25.28174
G1 X62.784 Y65.612 E25.29907
G1 X62.827 Y65.603 E25.30053
G1 X63.719 Y65.458 E25.33058
G1 X64.727 Y65.389 E25.36419
G1 X65.749 Y65.37 E25.39819
G1 X65.939 Y65.368 E25.40451
G1 X141.5 Y65.368 E27.91768
G1 X154.451 Y65.368 E28.34843
G1 X155.173 Y65.379 E28.37244
G1 X156.075 Y65.433 E28.4025
G1 X156.968 Y65.566 E28.43253
G1 X157.846 Y65.778 E28.46257
G1 X158.702 Y66.066 E28.49261
G1 X159.65 Y66.491 E28.52716
G1 X159.958 Y66.648 E28.53866
G1 X160.744 Y67.093 E28.5687
G1 X161.487 Y67.606 E28.59873
G1 X162.182 Y68.183 E28.62878
G1 X162.823 Y68.819 E28.65881
G1 X163.405 Y69.509 E28.68883
G1 X163.925 Y70.248 E28.71889
G1 X164.5 Y71.276 E28.75806
G1 X164.587 Y71.455 E28.76468
G1 X164.945 Y72.284 E28.79472
G1 X165.229 Y73.142 E28.82478
G1 X165.436 Y74.021 E28.85481
G1 X165.564 Y74.915 E28.88485
G1 X165.611 Y75.721 E28.9117
G1 X165.63 Y76.726 E28.94514
G1 X165.632 Y76.919 E28.95156
G1 X165.632 Y129.561 E30.70244
G1 X165.632 Y138.435 E30.99759
G1 X165.621 Y139.171 E31.02207
G1 X165.567 Y140.073 E31.05212
G1 X165.434 Y140.966 E31.08215
G1 X165.223 Y141.844 E31.11219
G1 X165.007 Y142.508 E31.13541
G1 X164.92 Y142.747 E31.14387
G1 X164.574 Y143.581 E31.1739
G1 X164.155 Y144.381 E31.20394
G1 X163.667 Y145.141 E31.23398
G1 X163.114 Y145.855 E31.26401
G1 X162.5 Y146.518 E31.29407
G1 X161.83 Y147.123 E31.32409
G1 X161.176 Y147.62 E31.35142
G1 X160.967 Y147.766 E31.35989
G1 X160.205 Y148.25 E31.38992
G1 X159.402 Y148.664 E31.41997
G1 X158.567 Y149.006 E31.44998
G1 X157.704 Y149.273 E31.48002
G1 X157.216 Y149.388 E31.4967
G1 X157.173 Y149.397 E31.49816
G1 X156.281 Y149.542 E31.52822
G1 X155.273 Y149.611 E31.56182
G1 X154.251 Y149.63 E31.59582
G1 X154.061 Y149.632 E31.60214
G1 X147.85 Y149.632 E31.80872
G1 X145.244 Y149.669 E31.8954
G1 X142.676 Y149.778 E31.98089
G1 X140.174 Y149.955 E32.06432
G1 X137.662 Y150.204 E32.14828
G1 X135.099 Y150.532 E32.23422
G1 X132.614 Y150.923 E32.31789
G1 X130.131 Y151.384 E32.40188
G1 X127.57 Y151.935 E32.48901
G1 X125.194 Y152.52 E32.5704
G1 X122.685 Y153.21 E32.65695
G1 X120.332 Y153.93 E32.73879
G1 X119.526 Y154.205 E32.76711
G1 X119.344 Y154.258 E32.77342
G1 X118.089 Y154.673 E32.81738
G1 X117.22 Y154.919 E32.84742
G1 X116.332 Y155.086 E32.87747
G1 X115.277 Y155.182 E32.91271
G1 X115.12 Y155.188 E32.91793
G1 X114.855 Y155.194 E32.92675
G1 X114.321 Y155.2 E32.94451
G1 X105.665 Y155.199 E33.23241
G1 X104.959 Y155.188 E33.2559
G1 X104.058 Y155.134 E33.28592
G1 X103.164 Y155 E33.31598
G1 X101.857 Y154.654 E33.36095
G1 X101.015 Y154.37 E33.39051
G1 X98.525 Y153.569 E33.47751
G1 X96.113 Y152.866 E33.56107
G1 X93.611 Y152.215 E33.64705
G1 X91.208 Y151.66 E33.72908
G1 X88.698 Y151.156 E33.81423
G1 X86.163 Y150.72 E33.89978
G1 X83.676 Y150.366 E33.98334
G1 X81.119 Y150.075 E34.06893
G1 X78.584 Y149.858 E34.15355
G1 X76.088 Y149.715 E34.23671
G1 X73.498 Y149.641 E34.32289
G1 X72.15 Y149.632 E34.36772
G1 X65.547 Y149.632 E34.58734
G1 X64.82 Y149.621 E34.61152
G1 X63.918 Y149.567 E34.64158
G1 X63.025 Y149.434 E34.6716
G1 X62.147 Y149.222 E34.70165
G1 X61.461 Y148.998 E34.72565
G1 X61.232 Y148.914 E34.73376
G1 X60.399 Y148.566 E34.76379
G1 X59.6 Y148.145 E34.79383
G1 X58.841 Y147.656 E34.82386
G1 X58.128 Y147.101 E34.85391
G1 X57.452 Y146.469 E34.88469
G1 X57.408 Y146.424 E34.88678
G1 X56.806 Y145.751 E34.91681
G1 X56.046 Y144.69 E34.96022
G1 X55.94 Y144.52 E34.96688
G1 X55.496 Y143.733 E34.99694
G1 X55.124 Y142.91 E35.02698
G1 X54.826 Y142.058 E35.057
G1 X54.625 Y141.279 E35.08376
G1 X54.617 Y141.242 E35.08502
G1 X54.466 Y140.351 E35.11507
G1 X54.389 Y139.274 E35.15099
G1 X54.37 Y138.245 E35.18522
G1 X54.368 Y138.057 E35.19147
G1 X54.368 Y85.439 E36.94155
G1 X54.368 Y76.519 E37.23823
G1 X54.379 Y75.821 E37.26145
G1 X54.433 Y74.92 E37.29147
G1 X54.567 Y74.027 E37.32151
G1 X54.779 Y73.149 E37.35155
G1 X54.972 Y72.551 E37.37245
G1 X55.057 Y72.313 E37.38085
G1 X55.398 Y71.477 E37.41088
G1 X55.812 Y70.674 E37.44093
G1 X56.295 Y69.911 E37.47097
G1 X56.844 Y69.194 E37.501
G1 X57.454 Y68.528 E37.53104
G1 X58.12 Y67.919 E37.56106
G1 F1500 E31.06106
G0 F6000 X63.964 Y139.36
G0 X64.218 Y139.771
G0 X64.628 Y140.033
G0 X64.719 Y140.05
G0 X107.2 Y142.432
G1 F1500 E37.56106
G1 F1200 X112.8 Y142.432 E37.74731
G1 X112.8 Y142.8 E37.75955
G1 X107.2 Y142.8 E37.94581
G1 X107.2 Y142.432 E37.95805
G0 F6000 X106.8 Y142.032
G1 F1200 X113.2 Y142.032 E38.17091
G1 X113.2 Y143.2 E38.20976
G1 X106.8 Y143.2 E38.42263
G1 X106.8 Y142.032 E38.46147
G0 F6000 X106.4 Y141.632
G1 F1200 X113.6 Y141.632 E38.70095
G1 X113.6 Y143.6 E38.7664
G1 X106.4 Y143.6 E39.00588
G1 X106.4 Y141.632 E39.07133
G0 F6000 X106 Y141.232
G1 F1200 X114 Y141.232 E39.33741
G1 X114 Y144 E39.42948
G1 X106 Y144 E39.69556
G1 X106 Y141.232 E39.78762
G0 F6000 X105.6 Y140.832
G1 F1200 X114.4 Y140.832 E40.08031
G1 X114.4 Y144.4 E40.19898
G1 X105.6 Y144.4 E40.49167
G1 X105.6 Y140.832 E40.61034
G0 F6000 X105.2 Y140.762
G1 F1200 X105.181 Y140.678 E40.61321
G1 X105.067 Y140.432 E40.62223
G1 X114.932 Y140.432 E40.95034
G1 X114.818 Y140.68 E40.95942
G1 X114.8 Y140.764 E40.96227
G1 X114.8 Y144.8 E41.09651
G1 X105.2 Y144.8 E41.41581
G1 X105.2 Y140.762 E41.55011
G1 F1500 E35.05011
;MESH:rpi_case_main_body.STL
G0 F6000 X71.623 Y131.387
G0 X72.87 Y132.145
G0 X71.977 Y132.748
;TYPE:WALL-INNER
G1 F1500 E41.55011
G1 F1200 X72.263 Y132.554 E41.56161
G1 X72.508 Y132.317 E41.57295
G1 X72.707 Y132.045 E41.58415
G1 X72.858 Y131.747 E41.59527
G1 X72.959 Y131.416 E41.60678
G1 X73.001 Y131.078 E41.6181
G1 X72.985 Y130.739 E41.62939
G1 X72.915 Y130.413 E41.64048
G1 X72.785 Y130.093 E41.65197
G1 X72.606 Y129.804 E41.66328
G1 X72.379 Y129.549 E41.67463
G1 X72.116 Y129.339 E41.68583
G1 X71.82 Y129.173 E41.69711
G1 X71.498 Y129.061 E41.70845
G1 X71.168 Y129.005 E41.71959
G1 X70.83 Y129.005 E41.73083
G1 X70.495 Y129.063 E41.74214
G1 X70.17 Y129.178 E41.7536
G1 X69.873 Y129.345 E41.76493
G1 X69.614 Y129.554 E41.776
G1 X69.389 Y129.811 E41.78736
G1 X69.209 Y130.105 E41.79883
G1 X69.084 Y130.42 E41.8101
G1 X69.014 Y130.745 E41.82116
G1 X68.999 Y131.085 E41.83248
