;FLAVOR:Marlin
;TIME:5981
;Filament used: 3.73488m
;Layer height: 0.2
;MINX:79
;MINY:76.5
;MINZ:0.2
;MAXX:141
;MAXY:143.5
;MAXZ:36
;Generated with Cura_SteamEngine 4.7.1
M140 S60
M105
M190 S60
M104 S220
M105
M109 S220
M82 ;absolute extrusion mode
; Ender 3 Custom Start G-code
G92 E0 ; Reset Extruder
G28 ; Home all axes
G1 Z2.0 F3000 ; Move Z Axis up little to prevent scratching of Heat Bed
G1 X0.1 Y20 Z0.3 F5000.0 ; Move to start position
G1 X0.1 Y200.0 Z0.3 F1500.0 E15 ; Draw the first line
G1 X0.4 Y200.0 Z0.3 F5000.0 ; Move to side a little
G1 X0.4 Y20 Z0.3 F1500.0 E30 ; Draw the second line
G92 E0 ; Reset Extruder
G1 Z2.0 F3000 ; Move Z Axis up little to prevent scratching of Heat Bed
G1 X5 Y20 Z0.3 F5000.0 ; Move over to prevent blob squish
G92 E0
G92 E0
G1 F1500 E-6.5
;LAYER_COUNT:180
;LAYER:0
M107
G0 F6000 X82.198 Y79.764 Z0.2
;TYPE:SKIRT
G1 F1500 E0
G1 F1200 X82.886 Y79.127 E0.03119
G1 X83.626 Y78.551 E0.06237
G1 X84.412 Y78.039 E0.09357
G1 X85.239 Y77.597 E0.12476
G1 X86.101 Y77.227 E0.15596
G1 X86.991 Y76.931 E0.18716
G1 X87.903 Y76.713 E0.21835
G1 X88.83 Y76.572 E0.24953
G1 X89.701 Y76.513 E0.27857
G1 X90.022 Y76.504 E0.28925
G1 X90.33 Y76.5 E0.29949
G1 X129.451 Y76.501 E1.60066
G1 X130.149 Y76.511 E1.62388
G1 X131.085 Y76.565 E1.65507
G1 X132.013 Y76.697 E1.68624
G1 X132.927 Y76.909 E1.71745
G1 X133.819 Y77.198 E1.74863
G1 X134.684 Y77.561 E1.77984
G1 X135.514 Y77.997 E1.81102
G1 X136.305 Y78.502 E1.84223
G1 X137.049 Y79.073 E1.87342
G1 X137.742 Y79.705 E1.90462
G1 X138.379 Y80.393 E1.9358
G1 X138.954 Y81.134 E1.967
G1 X139.465 Y81.92 E1.99818
G1 X139.907 Y82.748 E2.0294
G1 X140.276 Y83.61 E2.06059
G1 X140.571 Y84.5 E2.09177
G1 X140.789 Y85.412 E2.12296
G1 X140.929 Y86.34 E2.15417
G1 X140.987 Y87.201 E2.18288
G1 X140.996 Y87.521 E2.19352
G1 X141 Y87.83 E2.2038
G1 X140.999 Y131.9 E3.66958
G1 X140.99 Y132.627 E3.69376
G1 X140.939 Y133.564 E3.72497
G1 X140.807 Y134.492 E3.75614
G1 X140.598 Y135.406 E3.78733
G1 X140.311 Y136.299 E3.81853
G1 X139.949 Y137.165 E3.84974
G1 X139.515 Y137.996 E3.88093
G1 X139.011 Y138.787 E3.91212
G1 X138.442 Y139.532 E3.9433
G1 X137.811 Y140.227 E3.97452
G1 X137.124 Y140.865 E4.00571
G1 X136.385 Y141.442 E4.03689
G1 X135.599 Y141.954 E4.06809
G1 X134.773 Y142.397 E4.09926
G1 X133.911 Y142.769 E4.13049
G1 X133.022 Y143.065 E4.16165
G1 X132.11 Y143.285 E4.19286
G1 X131.183 Y143.426 E4.22404
G1 X130.299 Y143.487 E4.25352
G1 X129.978 Y143.496 E4.2642
G1 X129.67 Y143.5 E4.27444
G1 X90.565 Y143.499 E5.57508
G1 X89.867 Y143.49 E5.5983
G1 X88.931 Y143.438 E5.62948
G1 X88.002 Y143.306 E5.66069
G1 X87.088 Y143.096 E5.69188
G1 X86.195 Y142.809 E5.72308
G1 X85.33 Y142.446 E5.75428
G1 X84.499 Y142.012 E5.78546
G1 X83.708 Y141.508 E5.81665
G1 X82.963 Y140.938 E5.84785
G1 X82.269 Y140.307 E5.87905
G1 X81.632 Y139.62 E5.91021
G1 X81.055 Y138.88 E5.94142
G1 X80.543 Y138.094 E5.97262
G1 X80.1 Y137.267 E6.00382
G1 X79.729 Y136.406 E6.03501
G1 X79.433 Y135.516 E6.0662
G1 X79.214 Y134.604 E6.0974
G1 X79.073 Y133.677 E6.12858
G1 X79.013 Y132.788 E6.15822
G1 X79.004 Y132.455 E6.1693
G1 X79 Y132.158 E6.17918
G1 X79.001 Y88.025 E7.64705
G1 X79.01 Y87.36 E7.66917
G1 X79.063 Y86.424 E7.70035
G1 X79.195 Y85.495 E7.73156
G1 X79.406 Y84.581 E7.76276
G1 X79.694 Y83.689 E7.79393
G1 X80.057 Y82.824 E7.82513
G1 X80.492 Y81.993 E7.85633
G1 X80.996 Y81.203 E7.8875
G1 X81.566 Y80.458 E7.9187
G1 X82.198 Y79.764 E7.94992
G0 F6000 X82.589 Y79.939
G1 F1200 X83.274 Y79.323 E7.98056
G1 X84.01 Y78.77 E8.01118
G1 X84.791 Y78.282 E8.04181
G1 X85.611 Y77.864 E8.07242
G1 X86.465 Y77.519 E8.10305
G1 X87.345 Y77.249 E8.13367
G1 X88.245 Y77.057 E8.16428
G1 X89.159 Y76.943 E8.19491
G1 X89.712 Y76.913 E8.21333
G1 X90.033 Y76.904 E8.22401
G1 X90.33 Y76.9 E8.23389
G1 X129.293 Y76.9 E9.52981
G1 X130.143 Y76.911 E9.55808
G1 X131.062 Y76.964 E9.5887
G1 X131.973 Y77.097 E9.61932
G1 X132.869 Y77.308 E9.64994
G1 X133.743 Y77.596 E9.68054
G1 X134.59 Y77.959 E9.71119
G1 X135.401 Y78.394 E9.7418
G1 X136.171 Y78.898 E9.77241
G1 X136.895 Y79.467 E9.80304
G1 X137.567 Y80.097 E9.83367
G1 X138.182 Y80.782 E9.86429
G1 X138.735 Y81.518 E9.89491
G1 X139.222 Y82.299 E9.92552
G1 X139.639 Y83.12 E9.95615
G1 X139.984 Y83.974 E9.98679
G1 X140.253 Y84.854 E10.01739
G1 X140.445 Y85.755 E10.04803
G1 X140.558 Y86.668 E10.07863
G1 X140.587 Y87.212 E10.09675
G1 X140.596 Y87.532 E10.1074
G1 X140.6 Y87.83 E10.11731
G1 X140.599 Y131.895 E11.58292
G1 X140.59 Y132.622 E11.6071
G1 X140.539 Y133.541 E11.63771
G1 X140.408 Y134.453 E11.66836
G1 X140.198 Y135.349 E11.69896
G1 X139.912 Y136.224 E11.72958
G1 X139.551 Y137.071 E11.76021
G1 X139.117 Y137.883 E11.79083
G1 X138.615 Y138.655 E11.82146
G1 X138.047 Y139.38 E11.85209
G1 X137.419 Y140.053 E11.88271
G1 X136.735 Y140.669 E11.91332
G1 X136 Y141.223 E11.94393
G1 X135.22 Y141.712 E11.97455
G1 X134.4 Y142.131 E12.00518
G1 X133.547 Y142.477 E12.0358
G1 X132.667 Y142.748 E12.06642
G1 X131.767 Y142.941 E12.09704
G1 X130.853 Y143.056 E12.12768
G1 X130.288 Y143.087 E12.1465
G1 X129.967 Y143.096 E12.15718
G1 X129.67 Y143.1 E12.16706
G1 X90.57 Y143.099 E13.46753
G1 X89.872 Y143.09 E13.49075
G1 X88.953 Y143.038 E13.52136
G1 X88.042 Y142.907 E13.55197
G1 X87.146 Y142.697 E13.58258
G1 X86.271 Y142.41 E13.61321
G1 X85.424 Y142.048 E13.64385
G1 X84.612 Y141.614 E13.67447
G1 X83.841 Y141.112 E13.70507
G1 X83.116 Y140.544 E13.7357
G1 X82.443 Y139.915 E13.76634
G1 X81.828 Y139.231 E13.79693
G1 X81.274 Y138.496 E13.82755
G1 X80.786 Y137.715 E13.85818
G1 X80.367 Y136.895 E13.8888
G1 X80.021 Y136.042 E13.91942
G1 X79.751 Y135.162 E13.95004
G1 X79.558 Y134.261 E13.98068
G1 X79.444 Y133.348 E14.01128
G1 X79.413 Y132.777 E14.0303
G1 X79.404 Y132.444 E14.04138
G1 X79.4 Y132.158 E14.0509
G1 X79.401 Y88.031 E15.51857
G1 X79.41 Y87.366 E15.54069
G1 X79.462 Y86.446 E15.57134
G1 X79.594 Y85.535 E15.60195
G1 X79.805 Y84.639 E15.63257
G1 X80.092 Y83.764 E15.6632
G1 X80.455 Y82.918 E15.69381
G1 X80.889 Y82.106 E15.72444
G1 X81.392 Y81.335 E15.75506
G1 X81.961 Y80.611 E15.78568
G1 X82.589 Y79.939 E15.81627
G0 F6000 X82.981 Y80.117
G1 F1200 X83.662 Y79.524 E15.84631
G1 X84.394 Y78.994 E15.87637
G1 X85.169 Y78.531 E15.90639
G1 X85.982 Y78.138 E15.93643
G1 X86.827 Y77.818 E15.96648
G1 X87.696 Y77.575 E15.99649
G1 X88.584 Y77.409 E16.02654
G1 X89.723 Y77.313 E16.06456
G1 X90.044 Y77.304 E16.07524
G1 X90.33 Y77.3 E16.08475
G1 X129.293 Y77.3 E17.38066
G1 X130.137 Y77.311 E17.40874
G1 X131.039 Y77.364 E17.43879
G1 X131.932 Y77.496 E17.46881
G1 X132.81 Y77.707 E17.49885
G1 X133.666 Y77.995 E17.52889
G1 X134.493 Y78.357 E17.55891
G1 X135.285 Y78.792 E17.58897
G1 X136.036 Y79.294 E17.61901
G1 X136.739 Y79.861 E17.64905
G1 X137.389 Y80.488 E17.67909
G1 X137.981 Y81.17 E17.70913
G1 X138.511 Y81.901 E17.73916
G1 X138.973 Y82.677 E17.7692
G1 X139.366 Y83.49 E17.79923
G1 X139.684 Y84.335 E17.82926
G1 X139.927 Y85.205 E17.8593
G1 X140.092 Y86.093 E17.88934
G1 X140.187 Y87.223 E17.92706
G1 X140.196 Y87.543 E17.93771
G1 X140.2 Y87.83 E17.94725
G1 X140.199 Y131.89 E19.41269
G1 X140.19 Y132.617 E19.43688
G1 X140.139 Y133.519 E19.46693
G1 X140.008 Y134.413 E19.49698
G1 X139.799 Y135.291 E19.527
G1 X139.513 Y136.148 E19.55705
G1 X139.152 Y136.976 E19.58709
G1 X138.72 Y137.768 E19.61709
G1 X138.219 Y138.52 E19.64715
G1 X137.653 Y139.224 E19.67719
G1 X137.028 Y139.875 E19.70721
G1 X136.347 Y140.469 E19.73726
G1 X135.616 Y141 E19.76731
G1 X134.842 Y141.464 E19.79733
G1 X134.029 Y141.858 E19.82738
G1 X133.185 Y142.178 E19.8574
G1 X132.315 Y142.423 E19.88746
G1 X131.428 Y142.589 E19.91748
G1 X130.277 Y142.687 E19.9559
G1 X129.956 Y142.696 E19.96658
G1 X129.67 Y142.7 E19.97609
G1 X90.575 Y142.699 E21.2764
G1 X89.877 Y142.69 E21.29961
G1 X88.976 Y142.639 E21.32963
G1 X88.082 Y142.507 E21.35969
G1 X87.204 Y142.298 E21.3897
G1 X86.347 Y142.011 E21.41976
G1 X85.52 Y141.65 E21.44978
G1 X84.727 Y141.217 E21.47983
G1 X83.976 Y140.716 E21.50985
G1 X83.272 Y140.15 E21.5399
G1 X82.621 Y139.524 E21.56994
G1 X82.028 Y138.843 E21.59997
G1 X81.498 Y138.112 E21.63
G1 X81.034 Y137.337 E21.66004
G1 X80.64 Y136.524 E21.69009
G1 X80.32 Y135.68 E21.72011
G1 X80.076 Y134.81 E21.75017
G1 X79.91 Y133.922 E21.78021
G1 X79.813 Y132.767 E21.81876
G1 X79.804 Y132.434 E21.82984
G1 X79.8 Y132.158 E21.83903
G1 X79.801 Y88.036 E23.30653
G1 X79.81 Y87.371 E23.32865
G1 X79.862 Y86.469 E23.3587
G1 X79.994 Y85.576 E23.38872
G1 X80.204 Y84.698 E23.41875
G1 X80.491 Y83.841 E23.44881
G1 X80.853 Y83.014 E23.47884
G1 X81.286 Y82.222 E23.50886
G1 X81.788 Y81.471 E23.5389
G1 X82.355 Y80.767 E23.56897
G1 X82.981 Y80.117 E23.59898
G1 F1500 E17.09898
;MESH:rpi_cam_mount.STL
G0 F6000 X95.665 Y124.036
G0 X94.23 Y124.036
G0 X94.4 Y128.1
;TYPE:WALL-INNER
G1 F1500 E23.59898
G1 F1200 X125.6 Y128.1 E24.6367
G1 X125.6 Y91.9 E25.84072
G1 X94.4 Y91.9 E26.87843
G1 X94.4 Y128.1 E28.08245
G0 F6000 X94.8 Y127.7
;TYPE:WALL-OUTER
G1 F1200 X125.2 Y127.7 E29.09356
G1 X125.2 Y92.3 E30.27097
G1 X94.8 Y92.3 E31.28207
G1 X94.8 Y127.7 E32.45948
G1 F1500 E25.95948
G0 F6000 X94.5 Y127.7
G0 X94.564 Y127.905
G0 X100.166 Y128.27
G0 X100.166 Y126.835
G0 X125.796 Y133.165
G0 X125.796 Y131.69
G0 X129.4 Y131.9
;TYPE:WALL-INNER
G1 F1500 E32.45948
G1 F1200 X90.6 Y131.9 E33.74998
G1 X90.6 Y88.1 E35.20677
G1 X129.4 Y88.1 E36.49726
G1 X129.4 Y131.9 E37.95406
G0 F6000 X129.8 Y132.3
;TYPE:WALL-OUTER
G1 F1200 X90.2 Y132.3 E39.27116
G1 X90.2 Y87.7 E40.75456
G1 X129.8 Y87.7 E42.07166
G1 X129.8 Y132.3 E43.55506
G0 F6000 X129.53 Y132.03
G0 X129.29 Y131.51
G0 X129.01 Y131.51
;TYPE:SKIN
G1 F1200 X90.99 Y131.51 E44.81961
G1 X90.99 Y88.49 E46.25046
G1 X129.01 Y88.49 E47.51501
G1 X129.01 Y131.51 E48.94587
G1 F1500 E42.44587
G0 F6000 X129.29 Y131.51
G0 X129.19 Y128.24
G0 X125.79 Y128.24
G0 X125.71 Y128.24
G0 X125.99 Y128.49
G1 F1500 E48.94587
G1 F1200 X125.99 Y91.51 E50.17583
G1 X94.01 Y91.51 E51.23948
G1 X94.01 Y128.49 E52.46944
G1 X125.99 Y128.49 E53.5331
G1 F1500 E47.0331
G0 F6000 X125.71 Y128.24
G0 X119.399 Y128.27
G0 X119.399 Y126.835
G0 X94.204 Y133.165
G0 X94.204 Y131.69
G0 X91.751 Y131.79
G0 X91.751 Y131.349
G1 F1500 E53.5331
G1 F1200 X91.149 Y130.747 E53.56142
G0 F6000 X91.149 Y130.181
G1 F1200 X92.317 Y131.349 E53.61636
G0 F6000 X92.882 Y131.349
G1 F1200 X91.149 Y129.616 E53.69787
G0 F6000 X91.149 Y129.05
G1 F1200 X93.448 Y131.349 E53.80601
G0 F6000 X94.014 Y131.349
G1 F1200 X91.149 Y128.484 E53.94077
G0 F6000 X91.149 Y127.919
G1 F1200 X94.579 Y131.349 E54.10211
G0 F6000 X95.145 Y131.349
G1 F1200 X91.149 Y127.353 E54.29007
G0 F6000 X91.149 Y126.787
G1 F1200 X95.711 Y131.349 E54.50465
G0 F6000 X96.276 Y131.349
G1 F1200 X91.149 Y126.222 E54.74581
G0 F6000 X91.149 Y125.656
G1 F1200 X93.85 Y128.356 E54.87283
G0 F6000 X94.142 Y128.649
G1 F1200 X96.842 Y131.349 E54.99983
G0 F6000 X97.408 Y131.349
G1 F1200 X94.708 Y128.649 E55.12683
G0 F6000 X95.274 Y128.649
G1 F1200 X97.973 Y131.349 E55.25381
G0 F6000 X98.539 Y131.349
G1 F1200 X95.839 Y128.649 E55.38081
G0 F6000 X96.405 Y128.649
G1 F1200 X99.105 Y131.349 E55.50781
G0 F6000 X99.67 Y131.349
G1 F1200 X96.971 Y128.649 E55.63478
G0 F6000 X97.536 Y128.649
G1 F1200 X100.236 Y131.349 E55.76178
G0 F6000 X100.802 Y131.349
G1 F1200 X98.102 Y128.649 E55.88878
G0 F6000 X98.668 Y128.649
G1 F1200 X101.367 Y131.349 E56.01576
G0 F6000 X101.933 Y131.349
G1 F1200 X99.233 Y128.649 E56.14276
G0 F6000 X99.799 Y128.649
G1 F1200 X102.499 Y131.349 E56.26976
G0 F6000 X103.065 Y131.349
G1 F1200 X100.365 Y128.649 E56.39676
G0 F6000 X100.931 Y128.649
G1 F1200 X103.63 Y131.349 E56.52374
G0 F6000 X104.196 Y131.349
G1 F1200 X101.496 Y128.649 E56.65074
G0 F6000 X102.062 Y128.649
G1 F1200 X104.762 Y131.349 E56.77773
G0 F6000 X105.327 Y131.349
G1 F1200 X102.628 Y128.649 E56.90471
G0 F6000 X103.193 Y128.649
G1 F1200 X105.893 Y131.349 E57.03171
G0 F6000 X106.459 Y131.349
G1 F1200 X103.759 Y128.649 E57.15871
G0 F6000 X104.325 Y128.649
G1 F1200 X107.024 Y131.349 E57.28569
G0 F6000 X107.59 Y131.349
G1 F1200 X104.89 Y128.649 E57.41269
G0 F6000 X105.456 Y128.649
G1 F1200 X108.156 Y131.349 E57.53969
G0 F6000 X108.721 Y131.349
G1 F1200 X106.022 Y128.649 E57.66666
G0 F6000 X106.587 Y128.649
G1 F1200 X109.287 Y131.349 E57.79366
G0 F6000 X109.853 Y131.349
G1 F1200 X107.153 Y128.649 E57.92066
G0 F6000 X107.719 Y128.649
G1 F1200 X110.418 Y131.349 E58.04764
G0 F6000 X110.984 Y131.349
G1 F1200 X108.284 Y128.649 E58.17464
G0 F6000 X108.85 Y128.649
G1 F1200 X111.55 Y131.349 E58.30164
G0 F6000 X112.116 Y131.349
G1 F1200 X109.416 Y128.649 E58.42864
G0 F6000 X109.981 Y128.649
G1 F1200 X112.681 Y131.349 E58.55564
G0 F6000 X113.247 Y131.349
G1 F1200 X110.547 Y128.649 E58.68264
G0 F6000 X111.113 Y128.649
G1 F1200 X113.813 Y131.349 E58.80964
G0 F6000 X114.378 Y131.349
G1 F1200 X111.679 Y128.649 E58.93661
G0 F6000 X112.244 Y128.649
G1 F1200 X114.944 Y131.349 E59.06361
G0 F6000 X115.51 Y131.349
G1 F1200 X112.81 Y128.649 E59.19061
G0 F6000 X113.376 Y128.649
G1 F1200 X116.075 Y131.349 E59.31759
G0 F6000 X116.641 Y131.349
G1 F1200 X113.941 Y128.649 E59.44459
G0 F6000 X114.507 Y128.649
G1 F1200 X117.207 Y131.349 E59.57159
G0 F6000 X117.772 Y131.349
G1 F1200 X115.073 Y128.649 E59.69856
G0 F6000 X115.638 Y128.649
G1 F1200 X118.338 Y131.349 E59.82556
G0 F6000 X118.904 Y131.349
G1 F1200 X116.204 Y128.649 E59.95256
G0 F6000 X116.77 Y128.649
G1 F1200 X119.469 Y131.349 E60.07954
G0 F6000 X120.035 Y131.349
G1 F1200 X117.335 Y128.649 E60.20654
G0 F6000 X117.901 Y128.649
G1 F1200 X120.601 Y131.349 E60.33354
G0 F6000 X121.166 Y131.349
G1 F1200 X118.467 Y128.649 E60.46052
G0 F6000 X119.032 Y128.649
G1 F1200 X121.732 Y131.349 E60.58751
G0 F6000 X122.298 Y131.349
G1 F1200 X119.598 Y128.649 E60.71451
G0 F6000 X120.164 Y128.649
G1 F1200 X122.864 Y131.349 E60.84151
G0 F6000 X123.429 Y131.349
G1 F1200 X120.729 Y128.649 E60.96851
G0 F6000 X121.295 Y128.649
G1 F1200 X123.995 Y131.349 E61.09551
G0 F6000 X124.561 Y131.349
G1 F1200 X121.861 Y128.649 E61.22251
G0 F6000 X122.427 Y128.649
G1 F1200 X125.126 Y131.349 E61.34949
G0 F6000 X125.692 Y131.349
G1 F1200 X122.992 Y128.649 E61.47649
G0 F6000 X123.558 Y128.649
G1 F1200 X126.258 Y131.349 E61.60349
G0 F6000 X126.823 Y131.349
G1 F1200 X124.124 Y128.649 E61.73047
G0 F6000 X124.689 Y128.649
G1 F1200 X127.389 Y131.349 E61.85747
G0 F6000 X127.955 Y131.349
G1 F1200 X125.255 Y128.649 E61.98446
G0 F6000 X125.821 Y128.649
G1 F1200 X128.52 Y131.349 E62.11144
G0 F6000 X128.85 Y131.113
G1 F1200 X126.149 Y128.412 E62.23849
G0 F6000 X126.149 Y127.846
G1 F1200 X128.85 Y130.547 E62.36553
G0 F6000 X128.85 Y129.981
G1 F1200 X126.149 Y127.28 E62.49258
G0 F6000 X126.149 Y126.714
G1 F1200 X128.85 Y129.416 E62.61965
G0 F6000 X128.85 Y128.85
G1 F1200 X126.149 Y126.149 E62.7467
G0 F6000 X126.149 Y125.583
G1 F1200 X128.85 Y128.284 E62.87375
G0 F6000 X128.85 Y127.719
G1 F1200 X126.149 Y125.017 E63.00082
G0 F6000 X126.149 Y124.452
G1 F1200 X128.85 Y127.153 E63.12786
G0 F6000 X128.85 Y126.587
G1 F1200 X126.149 Y123.886 E63.25491
G0 F6000 X126.149 Y123.32
G1 F1200 X128.85 Y126.021 E63.38196
G0 F6000 X128.85 Y125.456
G1 F1200 X126.149 Y122.755 E63.509
G0 F6000 X126.149 Y122.189
G1 F1200 X128.85 Y124.89 E63.63605
G0 F6000 X128.85 Y124.324
G1 F1200 X126.149 Y121.623 E63.7631
G0 F6000 X126.149 Y121.058
G1 F1200 X128.85 Y123.759 E63.89014
G0 F6000 X128.85 Y123.193
G1 F1200 X126.149 Y120.492 E64.01719
G0 F6000 X126.149 Y119.926
G1 F1200 X128.85 Y122.627 E64.14424
G0 F6000 X128.85 Y122.062
G1 F1200 X126.149 Y119.361 E64.27128
G0 F6000 X126.149 Y118.795
G1 F1200 X128.85 Y121.496 E64.39833
G0 F6000 X128.85 Y120.93
G1 F1200 X126.149 Y118.229 E64.52538
G0 F6000 X126.149 Y117.663
G1 F1200 X128.85 Y120.365 E64.65245
G0 F6000 X128.85 Y119.799
