;FLAVOR:Marlin
;TIME:7121
;Filament used: 4.73658m
;Layer height: 0.2
;MINX:54.75
;MINY:68.25
;MINZ:0.2
;MAXX:165.25
;MAXY:151.75
;MAXZ:21.2
;Generated with Cura_SteamEngine 4.7.1
M140 S60
M105
M190 S60
M104 S220
M105
M109 S220
M82 ;absolute extrusion mode
; Ender 3 Custom Start G-code
G92 E0 ; Reset Extruder
G28 ; Home all axes
G1 Z2.0 F3000 ; Move Z Axis up little to prevent scratching of Heat Bed
G1 X0.1 Y20 Z0.3 F5000.0 ; Move to start position
G1 X0.1 Y200.0 Z0.3 F1500.0 E15 ; Draw the first line
G1 X0.4 Y200.0 Z0.3 F5000.0 ; Move to side a little
G1 X0.4 Y20 Z0.3 F1500.0 E30 ; Draw the second line
G92 E0 ; Reset Extruder
G1 Z2.0 F3000 ; Move Z Axis up little to prevent scratching of Heat Bed
G1 X5 Y20 Z0.3 F5000.0 ; Move over to prevent blob squish
G92 E0
G92 E0
G1 F1500 E-6.5
;LAYER_COUNT:106
;LAYER:0
M107
G0 F6000 X58.636 Y70.877 Z0.2
;TYPE:SKIRT
G1 F1500 E0
G1 F1200 X59.376 Y70.301 E0.03119
G1 X60.162 Y69.789 E0.06239
G1 X60.989 Y69.347 E0.09358
G1 X61.851 Y68.977 E0.12478
G1 X62.741 Y68.681 E0.15597
G1 X63.653 Y68.463 E0.18716
G1 X64.58 Y68.322 E0.21835
G1 X65.451 Y68.263 E0.24738
G1 X65.772 Y68.254 E0.25806
G1 X66.08 Y68.25 E0.26831
G1 X153.543 Y68.25 E3.17734
G1 X153.701 Y68.251 E3.1826
G1 X154.399 Y68.261 E3.20581
G1 X155.335 Y68.315 E3.237
G1 X156.263 Y68.447 E3.26817
G1 X157.177 Y68.659 E3.29938
G1 X158.069 Y68.948 E3.33057
G1 X158.934 Y69.311 E3.36177
G1 X159.764 Y69.747 E3.39295
G1 X160.555 Y70.252 E3.42416
G1 X161.299 Y70.823 E3.45536
G1 X161.992 Y71.455 E3.48655
G1 X162.629 Y72.143 E3.51774
G1 X163.204 Y72.884 E3.54893
G1 X163.715 Y73.67 E3.58011
G1 X164.157 Y74.498 E3.61133
G1 X164.526 Y75.36 E3.64252
G1 X164.821 Y76.25 E3.6737
G1 X165.039 Y77.162 E3.70489
G1 X165.179 Y78.09 E3.73611
G1 X165.237 Y78.951 E3.76481
G1 X165.246 Y79.271 E3.77545
G1 X165.25 Y79.58 E3.78573
G1 X165.25 Y140.014 E5.79578
G1 X165.24 Y140.877 E5.82448
G1 X165.189 Y141.814 E5.85569
G1 X165.057 Y142.742 E5.88687
G1 X164.848 Y143.656 E5.91805
G1 X164.561 Y144.549 E5.94925
G1 X164.199 Y145.415 E5.98047
G1 X163.765 Y146.246 E6.01165
G1 X163.261 Y147.037 E6.04285
G1 X162.692 Y147.782 E6.07403
G1 X162.061 Y148.477 E6.10525
G1 X161.374 Y149.115 E6.13643
G1 X160.635 Y149.692 E6.16761
G1 X159.849 Y150.204 E6.19881
G1 X159.023 Y150.647 E6.22999
G1 X158.161 Y151.019 E6.26121
G1 X157.272 Y151.315 E6.29238
G1 X156.36 Y151.535 E6.32358
G1 X155.433 Y151.676 E6.35477
G1 X154.549 Y151.737 E6.38424
G1 X154.228 Y151.746 E6.39492
G1 X153.92 Y151.75 E6.40517
G1 X66.457 Y151.75 E9.3142
G1 X65.617 Y151.74 E9.34214
G1 X64.681 Y151.688 E9.37332
G1 X63.752 Y151.556 E9.40453
G1 X62.838 Y151.346 E9.43572
G1 X61.945 Y151.059 E9.46692
G1 X61.08 Y150.696 E9.49812
G1 X60.249 Y150.262 E9.5293
G1 X59.458 Y149.758 E9.56049
G1 X58.713 Y149.188 E9.59169
G1 X58.019 Y148.557 E9.62289
G1 X57.382 Y147.87 E9.65405
G1 X56.805 Y147.13 E9.68526
G1 X56.293 Y146.344 E9.71646
G1 X55.85 Y145.517 E9.74766
G1 X55.479 Y144.656 E9.77885
G1 X55.183 Y143.766 E9.81004
G1 X54.964 Y142.854 E9.84124
G1 X54.823 Y141.927 E9.87242
G1 X54.763 Y141.038 E9.90206
G1 X54.754 Y140.705 E9.91314
G1 X54.75 Y140.408 E9.92302
G1 X54.75 Y79.924 E11.93473
G1 X54.76 Y79.11 E11.9618
G1 X54.813 Y78.174 E11.99298
G1 X54.945 Y77.245 E12.02419
G1 X55.156 Y76.331 E12.05539
G1 X55.444 Y75.439 E12.08657
G1 X55.807 Y74.574 E12.11777
G1 X56.242 Y73.743 E12.14896
G1 X56.746 Y72.953 E12.18013
G1 X57.316 Y72.208 E12.21133
G1 X57.948 Y71.514 E12.24255
G1 X58.636 Y70.877 E12.27374
G0 F6000 X59.024 Y71.073
G1 F1200 X59.76 Y70.52 E12.30436
G1 X60.541 Y70.032 E12.33499
G1 X61.361 Y69.614 E12.3656
G1 X62.215 Y69.269 E12.39623
G1 X63.095 Y68.999 E12.42685
G1 X63.995 Y68.807 E12.45746
G1 X64.909 Y68.693 E12.48809
G1 X65.462 Y68.663 E12.50651
G1 X65.783 Y68.654 E12.51719
G1 X66.08 Y68.65 E12.52707
G1 X153.543 Y68.65 E15.4361
G1 X154.393 Y68.661 E15.46438
G1 X155.312 Y68.714 E15.49499
G1 X156.223 Y68.847 E15.52561
G1 X157.119 Y69.058 E15.55623
G1 X157.993 Y69.346 E15.58684
G1 X158.84 Y69.709 E15.61749
G1 X159.651 Y70.144 E15.6481
G1 X160.421 Y70.648 E15.6787
G1 X161.145 Y71.217 E15.70933
G1 X161.817 Y71.847 E15.73997
G1 X162.432 Y72.532 E15.77059
G1 X162.985 Y73.268 E15.80121
G1 X163.472 Y74.049 E15.83182
G1 X163.889 Y74.87 E15.86244
G1 X164.234 Y75.724 E15.89308
G1 X164.503 Y76.604 E15.92369
G1 X164.695 Y77.505 E15.95433
G1 X164.808 Y78.418 E15.98492
G1 X164.837 Y78.962 E16.00304
G1 X164.846 Y79.282 E16.01369
G1 X164.85 Y79.58 E16.0236
G1 X164.85 Y140.014 E18.03365
G1 X164.84 Y140.872 E18.06218
G1 X164.789 Y141.791 E18.0928
G1 X164.658 Y142.703 E18.12344
G1 X164.448 Y143.599 E18.15405
G1 X164.162 Y144.474 E18.18467
G1 X163.801 Y145.321 E18.21529
G1 X163.367 Y146.133 E18.24592
G1 X162.865 Y146.905 E18.27654
G1 X162.297 Y147.63 E18.30718
G1 X161.669 Y148.303 E18.33779
G1 X160.985 Y148.919 E18.36841
G1 X160.25 Y149.473 E18.39902
G1 X159.47 Y149.962 E18.42964
G1 X158.65 Y150.381 E18.46027
G1 X157.797 Y150.727 E18.49088
G1 X156.917 Y150.998 E18.52151
G1 X156.017 Y151.191 E18.55212
G1 X155.103 Y151.306 E18.58276
G1 X154.538 Y151.337 E18.60158
G1 X154.217 Y151.346 E18.61226
G1 X153.92 Y151.35 E18.62214
G1 X66.457 Y151.35 E21.53117
G1 X65.622 Y151.34 E21.55895
G1 X64.703 Y151.288 E21.58956
G1 X63.792 Y151.157 E21.62017
G1 X62.896 Y150.947 E21.65078
G1 X62.021 Y150.66 E21.68141
G1 X61.174 Y150.298 E21.71205
G1 X60.362 Y149.864 E21.74267
G1 X59.591 Y149.362 E21.77327
G1 X58.866 Y148.794 E21.8039
G1 X58.193 Y148.165 E21.83454
G1 X57.578 Y147.481 E21.86514
G1 X57.024 Y146.746 E21.89575
G1 X56.536 Y145.965 E21.92638
G1 X56.117 Y145.145 E21.95701
G1 X55.771 Y144.292 E21.98762
G1 X55.501 Y143.412 E22.01824
G1 X55.308 Y142.511 E22.04888
G1 X55.194 Y141.598 E22.07949
G1 X55.163 Y141.027 E22.09851
G1 X55.154 Y140.694 E22.10959
G1 X55.15 Y140.408 E22.1191
G1 X55.15 Y79.924 E24.13081
G1 X55.16 Y79.116 E24.15768
G1 X55.212 Y78.196 E24.18833
G1 X55.344 Y77.285 E24.21895
G1 X55.555 Y76.389 E24.24956
G1 X55.842 Y75.514 E24.28019
G1 X56.205 Y74.668 E24.31081
G1 X56.639 Y73.856 E24.34143
G1 X57.142 Y73.085 E24.37205
G1 X57.711 Y72.361 E24.40268
G1 X58.339 Y71.689 E24.43327
G1 X59.024 Y71.073 E24.46391
G0 F6000 X59.412 Y71.274
G1 F1200 X60.144 Y70.744 E24.49397
G1 X60.919 Y70.281 E24.52399
G1 X61.732 Y69.888 E24.55403
G1 X62.577 Y69.568 E24.58408
G1 X63.446 Y69.325 E24.61409
G1 X64.334 Y69.159 E24.64414
G1 X65.473 Y69.063 E24.68216
G1 X65.794 Y69.054 E24.69284
G1 X66.08 Y69.05 E24.70235
G1 X153.543 Y69.05 E27.61138
G1 X154.387 Y69.061 E27.63946
G1 X155.289 Y69.114 E27.66951
G1 X156.182 Y69.246 E27.69953
G1 X157.06 Y69.457 E27.72957
G1 X157.916 Y69.745 E27.75961
G1 X158.743 Y70.107 E27.78963
G1 X159.535 Y70.542 E27.81969
G1 X160.286 Y71.044 E27.84973
G1 X160.989 Y71.611 E27.87977
G1 X161.639 Y72.238 E27.90981
G1 X162.231 Y72.92 E27.93984
G1 X162.761 Y73.651 E27.96988
G1 X163.223 Y74.427 E27.99991
G1 X163.616 Y75.24 E28.02995
G1 X163.934 Y76.085 E28.05998
G1 X164.177 Y76.955 E28.09002
G1 X164.342 Y77.843 E28.12006
G1 X164.437 Y78.973 E28.15778
G1 X164.446 Y79.293 E28.16842
G1 X164.45 Y79.58 E28.17797
G1 X164.45 Y140.014 E30.18801
G1 X164.44 Y140.867 E30.21639
G1 X164.389 Y141.769 E30.24644
G1 X164.258 Y142.663 E30.27649
G1 X164.049 Y143.541 E30.30651
G1 X163.763 Y144.398 E30.33656
G1 X163.402 Y145.226 E30.3666
G1 X162.97 Y146.018 E30.3966
G1 X162.469 Y146.77 E30.42666
G1 X161.903 Y147.474 E30.4567
G1 X161.278 Y148.125 E30.48672
G1 X160.597 Y148.719 E30.51677
G1 X159.866 Y149.25 E30.54683
G1 X159.092 Y149.714 E30.57684
G1 X158.279 Y150.108 E30.60689
G1 X157.435 Y150.428 E30.63691
G1 X156.565 Y150.673 E30.66697
G1 X155.678 Y150.839 E30.69699
G1 X154.527 Y150.937 E30.73541
G1 X154.206 Y150.946 E30.74609
G1 X153.92 Y150.95 E30.7556
G1 X66.457 Y150.95 E33.66463
G1 X65.627 Y150.94 E33.69224
G1 X64.726 Y150.889 E33.72226
G1 X63.832 Y150.757 E33.75231
G1 X62.954 Y150.548 E33.78233
G1 X62.097 Y150.261 E33.81239
G1 X61.27 Y149.9 E33.8424
G1 X60.477 Y149.467 E33.87245
G1 X59.726 Y148.966 E33.90248
G1 X59.022 Y148.4 E33.93252
G1 X58.371 Y147.774 E33.96256
G1 X57.778 Y147.093 E33.9926
G1 X57.248 Y146.362 E34.02263
G1 X56.784 Y145.587 E34.05267
G1 X56.39 Y144.774 E34.08272
G1 X56.07 Y143.93 E34.11274
G1 X55.826 Y143.06 E34.14279
G1 X55.66 Y142.172 E34.17284
G1 X55.563 Y141.017 E34.21139
G1 X55.554 Y140.684 E34.22247
G1 X55.55 Y140.408 E34.23165
G1 X55.55 Y79.924 E36.24336
G1 X55.56 Y79.121 E36.27007
G1 X55.612 Y78.219 E36.30012
G1 X55.744 Y77.326 E36.33014
G1 X55.954 Y76.448 E36.36017
G1 X56.241 Y75.591 E36.39023
G1 X56.603 Y74.764 E36.42025
G1 X57.036 Y73.972 E36.45028
G1 X57.538 Y73.221 E36.48032
G1 X58.105 Y72.517 E36.51039
G1 X58.731 Y71.867 E36.5404
G1 X59.412 Y71.274 E36.57044
G1 F1500 E30.07044
;MESH:rpi_case_top.STL
G0 F6000 X87.077 Y107.644
G0 X85.774 Y106.987
G0 X85.462 Y109.197
G0 X85.422 Y110.331
G0 X85.571 Y111.398
G0 X85.895 Y112.42
G0 X86.388 Y113.376
G0 X86.991 Y114.189
G0 X87.817 Y114.967
G0 X88.714 Y115.562
G0 X89.461 Y115.897
G0 X91.75 Y116.501
;TYPE:WALL-INNER
G1 F1500 E36.57044
G1 F1200 X92.831 Y116.409 E36.60652
G1 X92.915 Y116.392 E36.60937
G1 X93.903 Y116.133 E36.64334
G1 X93.982 Y116.101 E36.64618
G1 X94.908 Y115.681 E36.68
G1 X94.981 Y115.636 E36.68285
G1 X95.818 Y115.068 E36.71649
G1 X95.883 Y115.013 E36.71932
G1 X96.623 Y114.302 E36.75346
G1 X96.675 Y114.236 E36.75625
G1 X97.286 Y113.408 E36.79048
G1 X97.778 Y112.431 E36.82686
G1 X97.805 Y112.351 E36.82967
G1 X98.1 Y111.384 E36.86329
G1 X98.115 Y111.301 E36.8661
G1 X98.244 Y110.288 E36.90006
G1 X98.244 Y110.204 E36.90286
G1 X98.198 Y109.186 E36.93675
G1 X98.184 Y109.102 E36.93958
G1 X97.969 Y108.109 E36.97337
G1 X97.94 Y108.03 E36.97617
G1 X97.56 Y107.082 E37.01014
G1 X97.516 Y107.008 E37.01301
G1 X96.977 Y106.134 E37.04716
G1 X96.249 Y105.306 E37.08383
G1 X95.4 Y104.622 E37.12009
G1 X95.327 Y104.578 E37.12293
G1 X94.426 Y104.076 E37.15723
G1 X93.397 Y103.713 E37.19352
G1 X93.315 Y103.696 E37.19631
G1 X92.301 Y103.523 E37.23052
G1 X91.215 Y103.523 E37.26664
G1 X91.129 Y103.533 E37.26952
G1 X90.125 Y103.707 E37.30341
G1 X90.044 Y103.732 E37.30623
G1 X89.072 Y104.076 E37.34053
G1 X88.119 Y104.609 E37.37684
G1 X88.052 Y104.659 E37.37962
G1 X87.251 Y105.306 E37.41387
G1 X86.523 Y106.134 E37.45054
G1 X85.945 Y107.074 E37.48724
G1 X85.54 Y108.082 E37.52337
G1 X85.518 Y108.163 E37.52617
G1 X85.302 Y109.176 E37.56062
G1 X85.255 Y110.262 E37.59677
G1 X85.262 Y110.347 E37.59961
G1 X85.394 Y111.361 E37.63362
G1 X85.417 Y111.444 E37.63648
G1 X85.715 Y112.412 E37.67017
G1 X85.75 Y112.489 E37.67298
G1 X86.209 Y113.4 E37.70691
G1 X86.258 Y113.47 E37.70975
G1 X86.87 Y114.296 E37.74394
G1 X87.657 Y115.048 E37.78015
G1 X87.724 Y115.098 E37.78293
G1 X88.569 Y115.668 E37.81683
G1 X88.645 Y115.707 E37.81967
G1 X89.585 Y116.13 E37.85396
G1 X90.642 Y116.405 E37.89028
G1 X90.726 Y116.415 E37.8931
G1 X91.75 Y116.501 E37.92727
G0 F6000 X91.75 Y116.1
;TYPE:WALL-OUTER
G1 F1200 X92.775 Y116.012 E37.96149
G1 X92.826 Y116.002 E37.96322
G1 X93.778 Y115.752 E37.99596
G1 X93.826 Y115.733 E37.99767
G1 X94.72 Y115.327 E38.03033
G1 X94.764 Y115.3 E38.03205
G1 X95.576 Y114.749 E38.06469
G1 X95.615 Y114.716 E38.06639
G1 X96.326 Y114.032 E38.0992
G1 X96.357 Y113.993 E38.10086
G1 X96.944 Y113.198 E38.13373
G1 X97.408 Y112.277 E38.16803
G1 X97.424 Y112.229 E38.16971
G1 X97.711 Y111.289 E38.2024
G1 X97.72 Y111.24 E38.20406
G1 X97.844 Y110.263 E38.23681
G1 X97.844 Y110.213 E38.23847
G1 X97.8 Y109.23 E38.2712
G1 X97.791 Y109.179 E38.27292
G1 X97.583 Y108.219 E38.30559
G1 X97.566 Y108.171 E38.30729
G1 X97.199 Y107.258 E38.34002
G1 X97.173 Y107.213 E38.34174
G1 X96.654 Y106.373 E38.37459
G1 X95.971 Y105.596 E38.40899
G1 X95.169 Y104.95 E38.44325
G1 X95.125 Y104.923 E38.44496
G1 X94.261 Y104.442 E38.47785
G1 X93.29 Y104.099 E38.5121
G1 X93.241 Y104.089 E38.51377
G1 X92.267 Y103.923 E38.54663
G1 X91.238 Y103.923 E38.58085
G1 X91.187 Y103.929 E38.58256
G1 X90.218 Y104.097 E38.61527
G1 X90.169 Y104.112 E38.61698
G1 X89.238 Y104.442 E38.64983
G1 X88.338 Y104.945 E38.68412
G1 X88.298 Y104.975 E38.68578
G1 X87.529 Y105.596 E38.71866
G1 X86.846 Y106.373 E38.75307
G1 X86.303 Y107.255 E38.78752
G1 X85.92 Y108.209 E38.82171
G1 X85.907 Y108.257 E38.82336
G1 X85.7 Y109.227 E38.85635
G1 X85.656 Y110.255 E38.89057
G1 X85.66 Y110.306 E38.89228
G1 X85.787 Y111.281 E38.92498
G1 X85.801 Y111.331 E38.92671
G1 X86.09 Y112.27 E38.95938
G1 X86.111 Y112.316 E38.96106
G1 X86.554 Y113.195 E38.9938
G1 X86.583 Y113.237 E38.9955
G1 X87.171 Y114.03 E39.02834
G1 X87.916 Y114.742 E39.06261
G1 X87.956 Y114.772 E39.06427
G1 X88.773 Y115.323 E39.09705
G1 X88.818 Y115.346 E39.09873
G1 X89.718 Y115.751 E39.13156
G1 X90.717 Y116.011 E39.16589
G1 X90.767 Y116.017 E39.16756
G1 X91.75 Y116.1 E39.20038
G0 F6000 X91.75 Y116.54
G1 F1500 E32.70038
G0 F6000 X93.919 Y115.953
G0 X94.894 Y115.501
G0 X95.775 Y114.894
G0 X96.211 Y114.467
G0 X97.954 Y112.505
G0 X96.606 Y111.947
G0 X128.727 Y96.897
G0 X127.81 Y98.034
G0 X128.894 Y98.322
;TYPE:WALL-INNER
G1 F1500 E39.20038
G1 F1200 X129.25 Y98.353 E39.21226
G1 X129.606 Y98.322 E39.22415
G1 X129.95 Y98.232 E39.23597
G1 X130.276 Y98.086 E39.24785
G1 X130.57 Y97.885 E39.2597
G1 X130.829 Y97.639 E39.27158
G1 X131.04 Y97.351 E39.28345
G1 X131.201 Y97.034 E39.29528
G1 X131.304 Y96.693 E39.30713
G1 X131.351 Y96.341 E39.31894
G1 X131.335 Y95.981 E39.33092
G1 X131.26 Y95.634 E39.34273
G1 X131.127 Y95.305 E39.35453
G1 X130.941 Y95.001 E39.36639
G1 X130.705 Y94.732 E39.37829
G1 X130.427 Y94.509 E39.39014
G1 X130.117 Y94.334 E39.40198
G1 X129.78 Y94.216 E39.41386
G1 X129.428 Y94.155 E39.42574
G1 X129.072 Y94.155 E39.43758
G1 X128.72 Y94.216 E39.44946
G1 X128.383 Y94.334 E39.46134
G1 X128.073 Y94.509 E39.47318
G1 X127.795 Y94.732 E39.48503
G1 X127.559 Y95.001 E39.49694
G1 X127.373 Y95.305 E39.50879
G1 X127.24 Y95.634 E39.52059
G1 X127.165 Y95.981 E39.5324
G1 X127.149 Y96.341 E39.54439
G1 X127.196 Y96.693 E39.5562
G1 X127.299 Y97.034 E39.56805
G1 X127.46 Y97.351 E39.57987
G1 X127.671 Y97.639 E39.59175
G1 X127.93 Y97.885 E39.60363
G1 X128.224 Y98.086 E39.61547
G1 X128.55 Y98.232 E39.62735
G1 X128.894 Y98.322 E39.63918
G0 F6000 X128.962 Y97.926
;TYPE:WALL-OUTER
G1 F1200 X129.25 Y97.951 E39.64879
G1 X129.538 Y97.926 E39.65841
G1 X129.817 Y97.853 E39.668
G1 X130.08 Y97.735 E39.67759
G1 X130.318 Y97.573 E39.68716
G1 X130.527 Y97.374 E39.69676
G1 X130.698 Y97.141 E39.70637
G1 X130.828 Y96.884 E39.71595
G1 X130.912 Y96.608 E39.72555
G1 X130.95 Y96.323 E39.73511
G1 X130.937 Y96.033 E39.74477
G1 X130.876 Y95.752 E39.75433
G1 X130.768 Y95.485 E39.76391
G1 X130.618 Y95.239 E39.77349
G1 X130.427 Y95.022 E39.78311
G1 X130.202 Y94.841 E39.79271
G1 X129.951 Y94.7 E39.80229
G1 X129.679 Y94.604 E39.81188
G1 X129.394 Y94.555 E39.8215
G1 X129.106 Y94.555 E39.83108
G1 X128.821 Y94.604 E39.8407
G1 X128.549 Y94.7 E39.85029
G1 X128.298 Y94.841 E39.85987
G1 X128.073 Y95.022 E39.86947
G1 X127.882 Y95.239 E39.87909
G1 X127.732 Y95.485 E39.88867
G1 X127.624 Y95.752 E39.89825
G1 X127.563 Y96.033 E39.90781
G1 X127.55 Y96.323 E39.91747
G1 X127.588 Y96.608 E39.92703
G1 X127.672 Y96.884 E39.93663
G1 X127.802 Y97.141 E39.94621
G1 X127.973 Y97.374 E39.95582
G1 X128.182 Y97.573 E39.96542
G1 X128.42 Y97.735 E39.97499
G1 X128.683 Y97.853 E39.98458
G1 X128.962 Y97.926 E39.99417
G0 F6000 X128.888 Y98.359
G1 F1500 E33.49417
G0 F6000 X128.13 Y98.253
G0 X128.846 Y96.98
G0 X116.918 Y109.502
G0 X118.095 Y108.637
G0 X118.19 Y110.083
G0 X118.051 Y110.723
G0 X117.708 Y111.283
G0 X117.295 Y111.615
G0 X116.25 Y112.103
;TYPE:WALL-INNER
G1 F1500 E39.99417
G1 F1200 X116.606 Y112.072 E40.00606
G1 X116.95 Y111.982 E40.01788
